X:305
T: Mike Sullivan's #1
S: "Johnny O'Leary of Sliabh Luachra" (#78)
Z: B.Black
L: 1/8
M: 4/4
R: hornpipe
K: A
AB|c z cB cecA|d2 (3edc dfaA|BccB ceaf|ecAB BAFA|
BccB cecA|(3ded (3B=c^c dfaf|e z Ac BAFG|\
|1 A2 AG A2 :|2 A2 AG A2-A2||
efge aged|(3efg ed ec A2|ef g2a z ag|efed (3efg ed|
BccB cecA|(3ded (3B=c^c dfaf|ecAB BAFG|A2 AG A2-A2 :|
